X:1
T:Trio Sonata Op. 4, Nr. 1 from " 12 Trio Sonata, Op.4 "
T:Arcangelo Corelli (1653-1713) Arr. by : Hans Sitt (1850–1922)
T:Trio Sonata No.1 in C major
T:from " 12 Trio Sonatas, Op.4 " Transcribed for Recorder, Traverso and B/C from IMSLP# 299301 PDF File
T:Creative Commons Attribution-NonCommercial 4.0 
T:Creative Commons Attribution-NonCommercial 4.0 
T:Creative Commons Attribution-NonCommercial 4.0 
T:Creative Commons Attribution-NonCommercial 4.0 
T:Creative Commons Attribution-NonCommercial 4.0 
C:Arcangelo Corelli (1653-1713)
Z:Creative Commons Attribution-NonCommercial 4.0
Z:
%%score [ 1 2 3 ] { ( 4 5 7 ) | ( 6 8 ) }
L:1/8
Q:1/4=60
M:none
K:Eb
V:1 treble nm="Alto Recorder" snm="A. Rec."
V:2 treble nm="Traverso" snm="Trv."
V:3 bass nm="Viola da gamba" snm="Vla. d. g."
V:4 treble nm="Harpsichord" snm="Hch."
V:5 treble 
V:7 treble 
V:6 bass 
V:8 bass 
V:1
"^Largo""^1. Preludio" b3 z/ c'/ a>aa>b | g3 z/ a/ f>f g>g | e3 z/ f/ d>B b>e | a4 g3 z/ b/ | %4
 =b>b c'>c' d'2 g2- | g(c'/e/) f>g g2 d2- | dG c2- cdB=A | B2 =A2 G2 b2- | b2 _a4 g2- | g2 f4 ed | %10
 c2 c'2 f2 B2- | B2 A2 G2 b2- | b2 (ag) f2 z b | a2 (gf) g2 f2 | e2 bB e2 gG | c2 bg (c'b)(ag) | %16
 f4 e4 |][M:3/4]"^2. Allegro"[Q:1/4=120]!f! e | e2 g2 b2 | e'4 z2 | egbgeg | fbfdBd | egec=Af | %23
 d4 z2 | bgegbg | c'cdbeb | (ag) f4 | e4 z2 |!mf! bd'bfdB | e4 z2 | dBdfbf | gegbe'g | =afafbf | %33
!f! (ed) c4 | B4 z ::!f! f | f4 z2 | (de)fdef | B4 z2 | (ga)bgab | e4 z2 | (ab)c'abc' | f4 z2 | %43
 defdef | g4 z2 | egc'bag | acfedc | (=B3 g) (ag) | (fe) d4 | c4 z2 | fcdefe | d4 z2 | babgab | %53
 c'bc'd'e'b | (ag) f4 |!mf! e6- | e6- | e6 | a4 g2- | g2 f4 |!f! e6- | e6- | e6 | a4 g2- | g2 f4 | %65
 e4 z :| z |[M:4/4]"^Adagio"[Q:1/4=60] z8 | %68
!p! (!tenuto!c!tenuto!c)(!tenuto!c!tenuto!c) (!tenuto!c!tenuto!c)"_cresc."(!tenuto!=B!tenuto!B) | %69
 (!tenuto!a!tenuto!a)(!tenuto!a!tenuto!a) (!tenuto!g!tenuto!g)(!tenuto!G!tenuto!G) | %70
 (!tenuto!^F!tenuto!F)de!>(! =AAdd!>)! | ddcc ccBB | BB"_cresc."AA GGgg | %73
 !tenuto!g!tenuto!g!tenuto!f!tenuto!f !tenuto!f!tenuto!f!tenuto!e!tenuto!e | %74
!mf! !tenuto!c!tenuto!c!tenuto!c'!tenuto!c' !tenuto!=b2 z2 | %75
!p! (!tenuto!c!tenuto!c)"_cresc."(!tenuto!c!tenuto!c) !tenuto!d!tenuto!d!tenuto!d!tenuto!d | %76
 !tenuto!e!tenuto!e!tenuto!f!tenuto!a!>(! d2 e2!>)! | d4!<(! c4!<)! |!f! g2 z2!p! f2 z2 | %79
 !fermata!g8 |][M:2/2]"^3. Almanda"[Q:1/2=80]"^Presto"!f! e4 e4 | f4 .g2 b2- | b2 a4 g2- | %83
 g2 f4 e2- | e2 d4 c2- | c2 (BA) G2 e2- | e2 d2 c4 | B2 e4 d2 | g6 f2 | b6 a2- | a2 g4 f2- | %91
 f2 e2 cd e2- | e2 d2 e2!p! b2- | b2 a4 g2- | g2 f4 e2 | cd e4 d2 | e4 z4 ::!f! g4 g4 | g4 g4 | %99
 ^f2 z d' c'2 (b=a) | b2 =a2 (ga)!mf! b2- | b2 _a2 g4 | f2 a4 g2- | g2 fe dB e2- | %104
 e2"_cresc." f4 g2- | g2 a4 g2 | (cd) e4 d2 |!f! e2 f2 (_g2 f2) | z2!p! f2 (_g2 f2) | %109
 z2!f! b2 e2 a2- | a2 g2 (cd) e2- | e2 d2 e3!p! g | cd e4 d2 | e4 z4 :| %114
V:2
 g3 z/ g/ f>ff>g | e3 z/ f/ d>dd>d | c3 z/ c/ B2 e2- | e2 d2 e3 z/ g/ | f>g e>f dG z g | %5
 c'2 c2 =B2 z2 | G3 e ^F2 G2- | G2 ^F2 G2 z2 | c'4 b4 | a4 g4- | g2 (fe) d2 z2 | z2 f4 (ed) | %12
 c2 (fe) d2 z g | cd e4 d2 | e2 z2 z2 bB | e2 ge cd e2- | e2 d2 e4 |][M:3/4]!f! g | g2 b2 g2 | %19
 e4 z2 | .g2 .e2 .g2 | .b2 .B2 .f2 | .g2 =a4 | b4 z2 | .e'2 .b2 .g2 | .e2 .f2 .g2 | (fe) (e3 d) | %27
 e4 z2 |!mf! .f2 .d2 .B2 | c4 z2 | .f2 .b2 .f2 | .B2 .e2 .g2 | c4 .f2 |!f! .B2 (B3 =A) | B4 z :: %35
!f! d | d4 z2 | (fe)dBcd | e4 z2 | (ba)gefg | a4 z2 | e4 e2 | c4 z2 | f4 f2 | d4 z2 | G4 g2 | %46
 c4 a2 | (d3 G) c2- | c2 (c3 =B) | c4 z2 | c'4 c'2 | f4 z2 | efgefg | cdef g2 | e2 e3 d |!mf! e6- | %56
 e6- | e6 | d4 e2- | e2 (e3 d) |!f! e6- | e6- | e6 | d4 e2- | e2 (e3 d) | e4 z :| z | %67
[M:4/4] z4!p! (!tenuto!G!tenuto!G)(!tenuto!G!tenuto!G) | %68
 (!tenuto!G!tenuto!G)(!tenuto!F!tenuto!F) (!tenuto!E!tenuto!E)"_cresc."(!tenuto!g!tenuto!g) | %69
 (!tenuto!g!tenuto!g)(!tenuto!f!tenuto!f) (!tenuto!f!tenuto!f)(!tenuto!e!tenuto!e) | %70
 (!tenuto!d!tenuto!d)GG!>(! GG^FF!>)! | eeee dddd | =ee"_cresc."ff ffee | %73
 !tenuto!a!tenuto!a!tenuto!a!tenuto!a !tenuto!g!tenuto!g!tenuto!g!tenuto!g | %74
!mf! !tenuto!g!tenuto!g!tenuto!f!tenuto!f !tenuto!g2!p! !tenuto!G!tenuto!G | %75
 (!tenuto!G!tenuto!G)"_cresc."(!tenuto!F!tenuto!F) !tenuto!F!tenuto!F!tenuto!G!tenuto!G | %76
 !tenuto!G!tenuto!G!tenuto!c!tenuto!c!>(! =B2 c2-!>)! | c2 =B2!<(! c4!<)! |!f! d2 z2!p! c2 z2 | %79
 !fermata!=B8 |][M:2/2] z2!f! e4 e2- | e2 .d2 .e2 z2 | c'4 b4 | a4 g4 | f4 e4 | d6 (cB) | %86
 =A2 B4 A2 | B2 z2 f4 | f2 e2 a4- | a2 g2 c'4 | b4 a4 | g3 b a2 g2 | f4 e2 z2 |!p! c'4 b4 | %94
 a4 g3 b | a2 g2 f4 | e4 z4 :: z2!f! g4 g2- | g2 g4 c'2- | c'2 b2 (a^f) g2- | g2 ^f2 g3!mf! g | %101
 c3 =f2 z =e2 | f2 z2 b4 | c'4 f2 z2 | c4"_cresc." d4 | e4 f2 z b | a2 g2 f4 |!f! e2 z2 z2 f2 | %108
 (_g2 f2) z2!p! f2 | (_g2 f2) z2!f! f2 | B2 b2 a2 g2 | f4 e3!p! B | A2 G2 F4 | E4 z4 :| %114
V:3
 E,2 E4 D2- | D2 C4 B,2- | B,2 A,4 G,2 | F,2 B,2 E,2 E2 | D2 C2 =B,2 _B,2 | A,4 G,3 F, | %6
 E,3 C, D,2 E,2 | C,2 D,2 G,2 GF | =ECF_E D2 ED | CEDC =B,G,C_B, | A,2 =A,2 B,2 G,2 | %11
 C,2 D,2 E,2 G,2 | A,3 A, B,2 z G, | A,B,CA, B,2 B,,2 | E,2 D,2 C,2 B,,2 | A,,2 G,,2 A,,2 E,2 | %16
 B,,4 E,4 |][M:3/4]!f! E, | E,4 z2 | .E2 .G,2 .B,2 | .E,2 z2 .E2 | .D2 z2 .D2 | .C2 .F2 .F,2 | %23
 (B,=A,B,)CB,_A, | .G,2 z2 .G,2 | A,4 G,2 | .A,2 .B,2 .B,,2 | (EDE)FEF |!mf! D4 z2 | (CDC)B,=A,F, | %30
 B,4 .D,2 | E,4 .E,2 | F,4 .D,2 |!f! .E,2 .F,2 F,,2 | B,,4 z ::!f! B, | .B,2 .D,2 .F,2 | B,,4 z2 | %38
 (G,A,B,)G,A,B, | E,4 z2 | (C_DE)CDE | A,4 z2 | (=A,G,A,)F,G,B, | B,4 z2 | =B,=A,B,G,A,B, | %45
 C4 E,2 | F,4 F,2 | G,3 E, F,2 | C,2 G,4 | (C=B,C)DC_B, | =A,4 z2 | (B,=A,B,)CB,_A, | G,4 G,2 | %53
 A,4 G,2 | A,2 B,2 B,,2 |!mf! (EDE)FED | (CB,C)DCB, | (A,G,A,)B,A,G, | F,4 .E,2 | .A,2 .B,2 .B,,2 | %60
!f!{/E,} (EDE)FED | (CB,C)DCB, | (A,G,A,)B,A,G, | F,4 E,2 | .A,2 .B,2 .B,,2 | E,4 z :| z | %67
[M:4/4]!p! !tenuto!C!tenuto!C!tenuto!C!tenuto!C !tenuto!=B,!tenuto!B,!tenuto!_B,!tenuto!B, | %68
 =A,A,_A,A, G,G,"_cresc."G,G, | CCCC =B,B,CC | CCB,C!>(! DDD,D,!>)! | G,G,G,G, G,G,G,G, | %72
 C,C,"_cresc."C,C, C,C,CC | F,F,FF =B,B,CC |!mf! A,A,A,A, G,2!p! G,G, | %75
 A,A,"_cresc."=A,A, B,B,=B,B, | CCA,F,!>(! F,2 ^F,2!>)! | G,4!<(! C,4!<)! |!f! B,,2 z2!p! A,,2 z2 | %79
 !fermata!G,,8 |][M:2/2]!f! .E.D.C.B, .C.B,.A,.G, | .A,.F,.B,.B,, .E,.F,.G,.E, | A,B,CD EE,G,E, | %83
 F,E,D,B,, E,F,G,=A, | B,CDB, CB,=A,F, | B,CDD, E,F,G,E, | F,FGD ECFF, | B,A,G,E, A,F,B,B,, | %88
 E,F,G,E, F,G,A,F, | G,A,B,G, A,B,CD | EFGE FEDB, | EFGG, A,B,CG, | A,F,B,B,, E,F,!p!G,E, | %93
 A,B,CD EFGE | FEDB, EFGG, | A,B,CG, A,F,B,B,, | E,4 z4 ::!f! CEDC =B,G,=A,B, | CDED CDEC | %99
 DDEB, CDEC | DCDD, G,G!mf!G^F | =ECFA, B,G,CC, | F,FFE DB,EG, | A,B,CA, B,A,G,E, | %104
 A,G,"_cresc."A,F, B,A,B,G, | CB,CA, DB,EG, | A,B,CG, A,F,B,B,, |!f! E,EDB, EE,B,B,, | %108
!p! E,EDB, EE,B,B,, | E,!f!EDB, CCFE | DB,EG, A,B,CG, | A,F,B,B,, E,F,!p!G,E, | A,B,CG, A,F,B,B,, | %113
 E,4 z4 :| %114
V:4
!f! [Be]2 (G2 A2) B2 | [Gc]2 ((E2 F2)) (G2 | [EA-]2) ((([EAc]2 [FB=d]2))) [EBe]2 | %3
 [EAe]2 [FBd]2 [GBe]2 [GB]2 | [FG=B]2 [EGc]2 [DGd]2 ([G-dg-]2 | [Gcg]2) [Acf]2 [=Bdg]2 [GB]2- | %6
 B2 c4 _B2- | [Be]2 [^F=Ad]2 [B,DG]2 B2 | c3 f- f B2 e- | A4 G2 E2 | [Cc]4 [DF_B]2 ([EB]2 | %11
 [EB]2) (A2 G2)!<(! e2 | (c3 e!<)! dBd)!f!e | (cdef) [EGB]2 [FBd]2 | [GBe]G [FB]2 [EGc]G [GB]2 | %15
 [EAc]2 (([E-Be]2 [EAc])) z z [GB] | e2 d2 e4 |][M:3/4] z |!f! [GBe]4 z2 | .[GB]2 [EBe]2 .[Bdf]2 | %20
 .[Beg]2 z2 .[Beg]2 | .[Bfb]2 z2 .[Bf]2 | e4 .c2 | .d2 .[FBd]2 .[Bdf]2 | .[Beb]2 z2 .[EBe]2 | %25
 .[EAc]2 .[DFB]2 .[EBe]2 | c2 A4 | (GFG)AGA |!mf! B4 F2 | (ef!tenuto!e)dce | %30
 .[Bd]2 .[df]2 .[Bfb]2 | .[Beg]2 .[egb]2 .[gbe']2 | z2 [=Ac]2 .[FBf]2 |!f! .[GB]2 (B3 =A) | %34
 [DFB]4 z :: [DF] | .[DF]2 .[FB]2 .[F=Ac]2 | [FBd]4 z2 | (BAG)BAG | e4 z2 | (e_dc)edc | [ea]4 z2 | %42
 (cBc)=ABc | d4 z2 | (dcd)=Bcd | .e2 .g2 .c2 | .[FAc]2 .[Acf]2 .[cfa]2 | [DG=B]3 [CGc] [CA]2 | %48
 z2 (c3 =B) | .[EGc]2 .[Gce]2 .[ceg]2 | [cf]2 z2 [=Ac]2 | [DFB]2 [FBd]2 [Bdf]2 | [Be]2 z2 B2 | %53
 [EAc]3 [FB] [EBe]2 | .F2 (e3 d) | .[GBe]2 z2 .[GB]2 | .[Gce]2 z2 .[EG]2 | .[EAc]2 z2 .[Ace]2 | %58
 [Ada]4 .[Beg]2 | z2 (e3 d) | .[GBe]2 z2 .[GB]2 | .[Gce]2 z2 .[EG]2 | .[EAc]2 z2 .[Ace]2 | %63
 [Ada]4 .[Beg]2 | z2 (e3 d) | [GBe]4 z :| z |[M:4/4] C2 E2 G2 d2 | c2 f2 g4- | g2 f2- [df]2 [ce]2 | %70
 d3 =A A2 d2 | B2 e2 d2 g2 | [=eg]2 [cf]4 [ce]2 | [ca]4 [dg]2 [cg]2 | g2 [fc']2 =b2 (G2 | c4 d4 | %76
 e2 [cf]2 [dg]2) ([Ac-]2 | c2 =B2 c)cde | [DGd]2 z2 [Fcf]2 z2 | !fermata![G=Bdg]8 |] %80
[M:2/2] .[GB]2 !>!e2- e.d.c.B | .[Fce] z .[FBd] z .[GBe] z .[Be] z | cdef [Bfa] z [Beg] z | %83
 [Ac] z [ABf] z [GB] z e2- | ecB z (GB [Fe]) z | [Fd] z [FB] z G z c z | e2 (d2 c4 | %87
 B) z e2- e z [Fd] z | g z (e4 f2- | f2 g4 a2- | adeg c2) (f2- | f2 e2) (cd e2) | %92
 [ef]2 [Bdf]2!>)!!>(! e2 eg- | g z z2 Bdeg | Acdf GABe | cd .[Ge]2 .[cef]2 .[Bdf]2 | [GBe]4 z4 :: %97
 z2 (G2 d)=Bcd | e(=Bcd e)fge | ^f2 gd ecGe | .[GB] z!>(! .[^F=A] z!>)! .G z d2 | %101
 c2 (cf- f2-) =e2 | f z c2 B2 (Be- | e) z z2 d z [EBe] z | [Ec] z (F2 d2) (G2 | e2) (A2 f2) (ge | %106
 cdeg) .[cef] z .[Bdf] z | .[GBe] z f2 ([e_g]2 [df]2) | (([_GBe]2 [Bdf]2)) ([e_g]2 [df]2) | %109
 ([_GBe]2 f)d e2 cf | [Bfa] z [Beg] z (cdeg) | [cef]2 [Bdf]2 GABG | (cd e4) d2 | [GBe]4 z4 :| %114
V:5
 G2 (G2 F2) F2 | E2 (E2 D2) D2 | C2 x6 | x8 | x8 | x8 | G2 (G2 ^F2) G2- | G2 x4 B2- | B2 _A4 G2 | %9
 ecAd- d=B G2 | (G2 F2) x4 | x2 [B,F]4 [EB]2 | G2 F4- FB | A2 x6 | x6 D2 | x8 | FG A2 [GB]4 |] %17
[M:3/4] x | x6 | x6 | x6 | x6 | B2 =A2 c2 | x6 | x6 | x6 | E2 (E3 D) | E x5 | F4 F2- | F3 x2 =A | %30
 x6 | x6 | x6 | x2 E4 | x5 :: x | x6 | x6 | E3 x3 | [GB]4 x2 | A3 x3 | c4 x2 | F3 x3 | F4 x2 | %44
 G3 x3 | G2 x2 G2 | x6 | x6 | x2 (DE F2) | x6 | x6 | x6 | x6 | x6 | x2 [FB]4 | x6 | x6 | x6 | x6 | %59
 x2 [FB]4 | x6 | x6 | x6 | x6 | x2 [FB]4 | x5 :| x |[M:4/4] x4 [DG-]4 | [CG]2 F2 E2 D2 | %69
 [Ge]2 [Ac]2 G4 | [^F=A]2 G4 [FA]2 | G6 [Bd]2 | B2 (A2 G2) G2 | g2 f4 e2 | c4 [dg]2 G2- | %75
 G2 F4 G2- | G2 A2 =B2 E2 | [DG]4 [EG]EFG | x8 | x8 |][M:2/2] x8 | x8 | x8 | x6 Bc | F2 B_A G2 x2 | %85
 x6 EG | =A2 (B4 A2 | B) x BG F x3 | GABG ABcA | BcdB cdef | B4 A2 A2 | GA B2 cAGB | %92
 c2 x2 (GA B2) | cdef x4 | x8 | x8 | x8 :: x2 G6- | G2 x4 c2- | c=AG x3 G2 | x6 B2 | B2 _A2 (G4 | %102
 A) x c2 x2 G2 | (cBAc B) x3 | x6 G2 | G2 x4 B2 | c x2 B x4 | x2 [Bd]2 B4 | z4 B4 | x2 B2- B=G A2 | %110
 x4 A x2 B | x4 e2 x2 | (A2 GB cA) [FB]2 | x8 :| %114
V:6
 [E,,E,]2 [E,E]4 [D,D]2- | [D,D]2 [C,C]4 [B,,B,]2- | ([B,,B,]2 [A,,A,]4) [G,,G,]2 | %3
 [F,,F,]2 ([B,,,B,,]2 [E,,E,]2) [E,E]2 | ([D,D]2 [C,C]2) [=B,,=B,]2 [_B,,_B,]2 | %5
 [A,,A,]4 [G,,G,]3 [F,,F,] | [E,,E,]3 [C,,C,] [D,,=D,]2 [E,,E,]2 | [C,,C,]2 [D,,D,]2 [G,,G,]2 GF | %8
 =ECF_E D2 ED | CEDC =B,G,C_B, | (A,2 =A,2) B,2 G,2 | C,2 (D,2 E,2) [G,,G,]2 | %12
 [A,,A,]3 [A,,A,] [B,,B,]2 z [G,,G,] | [A,,A,][B,,B,][C,C][A,,A,] [B,,B,]2 [B,,,B,,]2 | %14
 [E,,E,]2 [D,,D,]2 [C,,C,]2 [B,,,B,,]2 | [A,,,A,,]2 [G,,,G,,]2 [A,,,A,,]2 [E,,E,]2 | %16
 [B,,B,]2 [B,,,B,,]2 [E,,E,]4 |][M:3/4] z | [E,,E,]4 z2 | .E2 .G,2 .B,2 | .E,2 z2 .E2 | %21
 .D2 z2 .D2 | .C2 .F2 .=A,2 | (B,=A,B,)CB,_A, | .G,2 z2 .G,2 | A,4 G,2 | .A,2 .B,2 .B,,2 | %27
 (E,D,E,)F,E,F, | D,4 z2 | (CDC)B,=A,F, | B,4 .D,2 | E,4 .E,2 | F,4 .D,2 | .E,2 .F,2 F,,2 | %34
 B,,4 z :: B, | .B,2 .D,2 .F,2 | B,,4 z2 | (G,A,B,)G,A,B, | E,4 z2 | (C_DE)CDE | A,4 z2 | %42
 (=A,G,A,)F,G,A, | B,4 z2 | (=B,=A,B,)G,A,B, | C4 E,2 | F,4 F,2 | G,3 E, F,2 | .C,2 G,4 | %49
 ((C=B,)C)DC_B, | =A,4 z2 | (B,=A,B,)CB,_A, | G,4 G,2 | A,4 G,2 | A,2 B,2 B,,2 | (EDE)FED | %56
 (CB,C)DCB, | (A,G,A,)B,A,G, | F,4 .E,2 | .A,2 .B,2 .B,,2 |{/E,} (EDE)FED | (CB,C)DCB, | %62
 (A,G,A,)B,A,G, | F,4 E,2 | .A,2 .B,2 .B,,2 | E,4 z :| z | %67
[M:4/4] !tenuto![C,,C,]!tenuto!C,!tenuto!C,!tenuto!C !tenuto!=B,!tenuto!B,!tenuto!B,!tenuto!B, | %68
 =A,A,_A,A, G,G,G,G, | CCCC =B,B,CC | CC_B,C DDD,D, | [G,,G,]G,G,G, G,G,G,G, | C,C,C,C, C,C,CC | %73
 F,F,FF =B,B,CC | A,A,A,A, G,2 G,G, | A,A,=A,A, B,B,=B,B, | %76
 C[C,C][A,,A,][F,,F,] [F,,F,]2 [^F,,^F,]2 | [G,,G,]4 [C,,C,]4 | [_B,,,_B,,]2 z2 [A,,,A,,]2 z2 | %79
 !fermata![G,,,G,,]8 |][M:2/2] .[E,E].D.C.B, .C.B,.A,G, | .A,.F,.B,.B,, E,.F,.G,.E, | %82
 A,B,CD EE,G,E, | F,E,D,B,, E,F,G,=A, | B,CDB, CB,=A,F, | B,CDD, E,F,G,E, | F,GGD ECFF, | %87
 B,._A,G,E, A,F,B,B,, | (E,F,G,E, F,G,A,F, | G,A,B,G, A,B,CD | EFGE F).E.D(B, | EFG)(G, A,B,C)G, | %92
 A,F,B,(B,, E,F,G,E,) | (A,B,CD EFGE | FED(B, EF)GG, | A,B,C)G, A,F,B,B,, | E,4 z4 :: %97
 CEDC =B,G,=A,B, | C(DED C)D(EC) | D2 (E(B,) C)DE!tenuto!C | DCDD, G,GGF | =ECFA, B,G,CC, | %102
 F,F(F_E D)B,EG, | ((A,B,)CA, B,)A,G,E, | A,G,A,F, B,A,B,G, | CB,.CA, DB,E(G, | %106
 A,B,CG,) A,F,B,B,, | E,E(DB, E).E,.B,.B,, | E,E(DB, E).E,.B,.B,, | .E,E.D.B, C2 .FE | %110
 DB,EG, (A,B,CG, | A,).F,.B,(B,, E,F,G,E,) | (A,B,CG,) A,.F,.B,B,, | [E,,E,]4 z4 :| %114
V:7
 x8 | x8 | x8 | x8 | x8 | x8 | x8 | x8 | x8 | x8 | x8 | x8 | x8 | x8 | x8 | x8 | B4 x4 |] %17
[M:3/4] x | x6 | x6 | x6 | x6 | x6 | x6 | x6 | x6 | x6 | x6 | x6 | x6 | x6 | x6 | x6 | x6 | x5 :: %35
 x | x6 | x6 | x6 | x6 | x6 | x6 | x6 | x6 | x6 | x6 | x6 | x6 | x6 | x6 | x6 | x6 | x6 | x6 | x6 | %55
 x6 | x6 | x6 | x6 | x6 | x6 | x6 | x6 | x6 | x6 | x5 :| x |[M:4/4] x8 | x8 | x8 | x8 | x8 | x8 | %73
 x8 | x8 | x8 | x8 | x8 | x8 | x8 |][M:2/2] x8 | x8 | x8 | x8 | x8 | x8 | x8 | x8 | x8 | x8 | x8 | %91
 x8 | x8 | x8 | x8 | x8 | x8 :: x8 | x8 | x8 | x8 | x8 | x8 | x8 | x8 | x8 | x8 | x8 | x8 | x8 | %110
 x8 | x8 | x8 | x8 :| %114
V:8
 x8 | x8 | x8 | x8 | x8 | x8 | x8 | x8 | x8 | x8 | x8 | x8 | x8 | x8 | x8 | x8 | x8 |][M:3/4] x | %18
 x6 | x6 | x6 | x6 | x6 | x6 | x6 | x6 | x6 | x6 | x6 | x6 | x6 | x6 | x6 | x6 | x5 :: x | x6 | %37
 x6 | x6 | x6 | x6 | x6 | x6 | x6 | x6 | x6 | x6 | x6 | x6 | x6 | x6 | x6 | x6 | x6 | x6 | x6 | %56
 x6 | x6 | x6 | x6 | x6 | x6 | x6 | x6 | x6 | x5 :| x |[M:4/4] x8 | x8 | x8 | x8 | x8 | x8 | x8 | %74
 x6 (G,,2 | A,,2 =A,,2 B,,2 =B,,2 | C,) x7 | x8 | x8 | x8 |][M:2/2] x8 | x8 | x8 | x8 | x8 | x8 | %86
 x8 | x8 | x8 | x8 | x8 | x8 | x8 | x8 | x8 | x8 | x8 :: x8 | x8 | x8 | x8 | x8 | x8 | x8 | x8 | %105
 x8 | x8 | x8 | x8 | x8 | x8 | x8 | x8 | x8 :| %114

